X:1
T:Etude No.8 Op.60
T:Matteo Carcassi (1792 -1853)
%%score ( 1 2 )
L:1/8
Q:1/4=80
M:2/4
K:E
V:1 treble-8 nm="Classical Guitar"
V:2 treble-8 
V:1
"^Moderato""_" !2!E/!1!G/(!3!c/!0!B/) E/G/(c/B/) | !3!F/!1!A/!0!e/!4!d/ F/A/e/d/ | %2
 G/B/(f/e/) G/B/(f/e/) |"_cresc.""^₵2" A/c/(!4!g/f/) A/c/(g/f/) | %4
"^₵2" !2!^A/c/(!4!g/f/) A/c/(g/f/) | !2!B/!3!d/(!4!g/!1!f/) B/d/(g/f/) | %6
"_""^V" !2!c/!1!e/(!4!b/!3!^a/) c/e/(b/a/) |"^VII" !2!d/!1!f/(!4!c'/!1!b/) !3!B z :: %8
"_""^₵4" !3!D/F/(!4!c/B/) D/F/(c/B/) | E/=G/(=d/=c/) E/G/(d/c/) |"_cresc." F/A/e/^d/ F/A/e/d/ | %11
 =G/B/(f/e/) G/B/(f/e/) | A/=c/(=g/f/) A/c/(g/f/) |"_" ^A/^c/(^g/f/) A/c/(g/f/) | %14
 !1!F/!1!B/(!4!e/!2!d/) !3!F/!2!^A/(!4!d/!1!c/) | B,/D/(c/B/) B, z |"_" E/G/(c/B/) E/G/(c/B/) | %17
 !1!D/!<(!!3!A/(!4!c/B/) !2!B,/A/!4!f/A/!<)! | D/A/(c/B/) D/A/(c/B/) | %19
!<(! E/G/(c/B/)!<)! E,/B/g/B/ |"_cresc." E/G/(f/e/) =D/G/(f/e/) | C/A/e/A/ =C/^A/e/A/ | %22
"_" B,/G/(c/B/) !1!B,/!2!A/(!4!d/!0!B/) |"_dim." E/G/(f/e/) E, z :| %24
V:2
 E2 E2 | F2 F2 | G2 G2 | A2 A2 | ^A2 A2 | B2 B2 | c2 c2 | d2 !3!B x :: D2 D2 | E2 E2 | F2 F2 | %11
 =G2 G2 | A2 A2 | ^A2 A2 | F2 F2 | B,2 B, x | E2 E2 | D2 B,2 | D2 D2 | E2 E,2 | E2 =D2 | C2 =C2 | %22
 B,2 B,2 | E2 E, x :| %24

